src/svg/list-ordered.svg

<svg height="16" width="12" xmlns="http://www.w3.org/2000/svg" viewBox="0 0 12 16">
  <path d="M12 13c0 0.59 0 1-0.59 1H4.59c-0.59 0-0.59-0.41-0.59-1s0-1 0.59-1h6.81c0.59 0 0.59 0.41 0.59 1zM4.59 4h6.81c0.59 0 0.59-0.41 0.59-1s0-1-0.59-1H4.59c-0.59 0-0.59 0.41-0.59 1s0 1 0.59 1z m6.81 3H4.59c-0.59 0-0.59 0.41-0.59 1s0 1 0.59 1h6.81c0.59 0 0.59-0.41 0.59-1s0-1-0.59-1zM2 1H1.28C0.98 1.19 0.7 1.25 0.25 1.34v0.66h0.75v2.14H0.16v0.86h2.84v-0.86h-1V1z m0.25 8.13c-0.17 0-0.45 0.03-0.66 0.06 0.53-0.56 1.14-1.25 1.14-1.89-0.02-0.78-0.56-1.3-1.36-1.3-0.59 0-0.97 0.2-1.38 0.64l0.58 0.58c0.19-0.19 0.38-0.38 0.64-0.38 0.28 0 0.48 0.16 0.48 0.52 0 0.53-0.77 1.2-1.7 2.06v0.58h3l-0.09-0.88h-0.66z m-0.08 3.78v-0.03c0.44-0.19 0.64-0.47 0.64-0.86 0-0.7-0.56-1.11-1.44-1.11-0.48 0-0.89 0.19-1.28 0.52l0.55 0.64c0.25-0.2 0.44-0.31 0.69-0.31 0.27 0 0.42 0.13 0.42 0.36 0 0.27-0.2 0.44-0.86 0.44v0.75c0.83 0 0.98 0.17 0.98 0.47 0 0.25-0.23 0.38-0.58 0.38-0.28 0-0.56-0.14-0.81-0.38L0 14.44c0.3 0.36 0.77 0.56 1.41 0.56 0.83 0 1.53-0.41 1.53-1.16 0-0.5-0.31-0.81-0.77-0.94z" />
</svg>

<?xml version="1.0" encoding="UTF-8" standalone="no"?>
<svg width="12px" height="16px" viewBox="0 0 12 16" version="1.1" xmlns="http://www.w3.org/2000/svg" xmlns:xlink="http://www.w3.org/1999/xlink">
    <!-- Generator: Sketch 3.7.1 (28215) - http://www.bohemiancoding.com/sketch -->
    <title>list-ordered</title>
    <desc>Created with Sketch.</desc>
    <defs></defs>
    <g id="Octicons" stroke="none" stroke-width="1" fill="none" fill-rule="evenodd">
        <g id="list-ordered" fill="#000000">
            <path d="M12,13 C12,13.59 12,14 11.41,14 L4.59,14 C4,14 4,13.59 4,13 C4,12.41 4,12 4.59,12 L11.4,12 C11.99,12 11.99,12.41 11.99,13 L12,13 Z M4.59,4 L11.4,4 C11.99,4 11.99,3.59 11.99,3 C11.99,2.41 11.99,2 11.4,2 L4.59,2 C4,2 4,2.41 4,3 C4,3.59 4,4 4.59,4 L4.59,4 Z M11.4,7 L4.59,7 C4,7 4,7.41 4,8 C4,8.59 4,9 4.59,9 L11.4,9 C11.99,9 11.99,8.59 11.99,8 C11.99,7.41 11.99,7 11.4,7 L11.4,7 Z M2,1 L1.28,1 C0.98,1.19 0.7,1.25 0.25,1.34 L0.25,2 L1,2 L1,4.14 L0.16,4.14 L0.16,5 L3,5 L3,4.14 L2,4.14 L2,1 L2,1 Z M2.25,9.13 C2.08,9.13 1.8,9.16 1.59,9.19 C2.12,8.63 2.73,7.94 2.73,7.3 C2.71,6.52 2.17,6 1.37,6 C0.78,6 0.4,6.2 -0.01,6.64 L0.57,7.22 C0.76,7.03 0.95,6.84 1.21,6.84 C1.49,6.84 1.69,7 1.69,7.36 C1.69,7.89 0.92,8.56 -0.01,9.42 L-0.01,10 L2.99,10 L2.9,9.12 L2.24,9.12 L2.25,9.13 Z M2.17,12.91 L2.17,12.88 C2.61,12.69 2.81,12.41 2.81,12.02 C2.81,11.32 2.25,10.91 1.37,10.91 C0.89,10.91 0.48,11.1 0.09,11.43 L0.64,12.07 C0.89,11.87 1.08,11.76 1.33,11.76 C1.6,11.76 1.75,11.89 1.75,12.12 C1.75,12.39 1.55,12.56 0.89,12.56 L0.89,13.31 C1.72,13.31 1.87,13.48 1.87,13.78 C1.87,14.03 1.64,14.16 1.29,14.16 C1.01,14.16 0.73,14.02 0.48,13.78 L-2.22044605e-16,14.44 C0.3,14.8 0.77,15 1.41,15 C2.24,15 2.94,14.59 2.94,13.84 C2.94,13.34 2.63,13.03 2.17,12.9 L2.17,12.91 Z" id="Shape"></path>
        </g>
    </g>
</svg>
